assets/sonr-icons/import.svg

<svg xmlns="http://www.w3.org/2000/svg" width="24" height="24" fill="none"><path fill="currentColor" d="M3 15.241V12a1 1 0 0 1 2 0v3.2c0 .857.001 1.439.037 1.889.036.439.101.662.181.819.192.377.498.683.874.874.157.08.38.145.819.181C7.361 19 7.944 19 8.8 19h6.4c.856 0 1.439-.001 1.889-.037.439-.036.662-.101.819-.181.377-.192.683-.498.874-.874.08-.157.145-.38.181-.819.037-.45.037-1.033.037-1.889V12a1 1 0 0 1 2 0v3.241c0 .805 0 1.469-.044 2.011-.046.562-.145 1.079-.391 1.564a4 4 0 0 1-1.748 1.748c-.485.248-1.002.346-1.564.392-.542.044-1.205.044-2.011.044H8.76c-.805 0-1.469 0-2.011-.044-.562-.046-1.078-.145-1.564-.392a4 4 0 0 1-1.748-1.748c-.248-.485-.346-1.002-.392-1.564C3.001 16.711 3 16.047 3 15.241"/><path fill="currentColor" d="M8.293 12.707a1 1 0 1 1 1.415-1.415l1.293 1.293V3.999a1 1 0 0 1 2 0v8.586l1.293-1.293a1 1 0 1 1 1.415 1.415l-3 3a1 1 0 0 1-1.415 0z"/></svg>

<svg xmlns="http://www.w3.org/2000/svg" width="24" height="24" fill="none" viewBox="0 0 24 24"><path fill="#000" d="M3 15.241V12C3 11.448 3.448 11 4 11C4.552 11 5 11.448 5 12V15.2C5 16.057 5.001 16.639 5.037 17.089C5.073 17.528 5.138 17.751 5.218 17.908C5.41 18.285 5.716 18.591 6.092 18.782C6.249 18.862 6.472 18.927 6.911 18.963C7.361 19 7.944 19 8.8 19H15.2C16.056 19 16.639 18.999 17.089 18.963C17.528 18.927 17.751 18.862 17.908 18.782C18.285 18.59 18.591 18.284 18.782 17.908C18.862 17.751 18.927 17.528 18.963 17.089C19 16.639 19 16.056 19 15.2V12C19 11.448 19.448 11 20 11C20.552 11 21 11.448 21 12V15.241C21 16.046 21 16.71 20.956 17.252C20.91 17.814 20.811 18.331 20.565 18.816C20.182 19.568 19.57 20.18 18.817 20.564C18.332 20.812 17.815 20.91 17.253 20.956C16.711 21 16.048 21 15.242 21H8.76C7.955 21 7.291 21 6.749 20.956C6.187 20.91 5.671 20.811 5.185 20.564C4.432 20.181 3.821 19.569 3.437 18.816C3.189 18.331 3.091 17.814 3.045 17.252C3.001 16.711 3 16.047 3 15.241Z"/><path fill="#000" d="M8.29301 12.707C7.90201 12.316 7.90201 11.683 8.29301 11.292C8.68401 10.901 9.31701 10.901 9.70801 11.292L11.001 12.585V3.99902C11.001 3.44702 11.449 2.99902 12.001 2.99902C12.553 2.99902 13.001 3.44702 13.001 3.99902V12.585L14.294 11.292C14.685 10.901 15.318 10.901 15.709 11.292C16.1 11.683 16.1 12.316 15.709 12.707L12.709 15.707C12.318 16.098 11.685 16.098 11.294 15.707L8.29301 12.707Z"/></svg>
